X:149
T:Two to the Bar Set #1
M:2/4
L:1/8
K:D
A|df ed|BA FE|DE FG|BA FA|df ed|BA FD|FA EF|1 D3 A:|2 D3 z||
AF ED|BA FB|AF ED|EF GB|AF ED|BA FB|AF ED|D3 z:|

